html/assets/images/dynamic/PDF-icon.svg

<svg width="16" height="20" fill="none" xmlns="http://www.w3.org/2000/svg"><path d="M4 14h8v2H4v-2zm0-4h8v2H4v-2zm6-10H2C.9 0 0 .9 0 2v16c0 1.1.89 2 1.99 2H14c1.1 0 2-.9 2-2V6l-6-6zm4 18H2V2h7v5h5v11z" fill="#00999A"/></svg>

<svg width="16" height="20" viewBox="0 0 16 20" fill="none" xmlns="http://www.w3.org/2000/svg">
<path d="M4 14H12V16H4V14ZM4 10H12V12H4V10ZM10 0H2C0.9 0 0 0.9 0 2V18C0 19.1 0.89 20 1.99 20H14C15.1 20 16 19.1 16 18V6L10 0ZM14 18H2V2H9V7H14V18Z" fill="#00999A"/>
</svg>
